svgs/owl2.svg

<svg xmlns="http://www.w3.org/2000/svg" viewBox="0 0 192 192"><path d="m78.88 160.118-14.952-14.994-8.182-.656c-15.596-1.252-28.672-10.163-35.733-24.351-3.207-6.444-3.81-9.281-3.864-18.184-.055-9.332.565-12.143 5.386-24.392 2.997-7.615 6.2-16.199 7.117-19.077 2.594-8.141 2.114-25.136-.96-33.995-1.448-4.169-2.439-7.581-2.203-7.581.236 0 3.761 2.131 7.833 4.736 42.113 26.94 82.902 26.968 124.923.088 4.147-2.653 7.795-4.824 8.107-4.824.311 0-.342 2.174-1.453 4.831-6.226 14.903-4.943 31.293 4.226 53.986 7.232 17.897 8.319 25.376 5.299 36.478-5.153 18.947-22.294 32.603-40.925 32.603-5.114 0-6.151.767-20.506 15.163-8.316 8.34-16.03 15.163-17.141 15.163-1.112 0-8.749-6.747-16.972-14.994Zm24.928-13.429c6.769-6.88 7.047-7.414 4.57-8.775-1.451-.797-4.862-3.755-7.582-6.574l-4.944-5.125-4.945 5.125c-2.719 2.819-6.131 5.777-7.581 6.574-2.477 1.361-2.199 1.895 4.569 8.775 3.964 4.03 7.545 7.327 7.957 7.327.412 0 3.992-3.297 7.956-7.327Zm-37.623-17.885c18.325-5.086 27.055-25.019 18.099-41.329-9.39-17.101-33.518-19.844-46.318-5.266-11.072 12.611-8.295 33.115 5.775 42.634 7.393 5.002 14.3 6.221 22.444 3.961Zm-13.422-11.133c-9.033-4.594-10.582-17.118-2.914-23.57 5.508-4.634 9.796-5.471 15.092-2.946 9.667 4.61 12.21 16.243 5.104 23.349-4.912 4.912-11.483 6.116-17.282 3.167Zm92.047 9.225c5.093-2.633 11.798-9.726 13.861-14.662 3.836-9.183 1.41-23.437-5.196-30.519-8.751-9.381-24.431-11.623-35.567-5.086-21.61 12.686-17.275 44.922 7.013 52.158 5.341 1.591 14.916.681 19.889-1.891Zm-17.973-8.42c-12.065-4.991-12.111-21.581-.074-27.321 5.296-2.525 9.583-1.688 15.091 2.946 12.139 10.215-.328 30.451-15.017 24.375Z"/></svg>

<svg
    xmlns="http://www.w3.org/2000/svg"
    viewBox="0 0 192 192"
    id="vector">
    <path
        id="path"
        d="M 78.88 160.118 L 63.928 145.124 L 55.746 144.468 C 40.15 143.216 27.074 134.305 20.013 120.117 C 16.806 113.673 16.203 110.836 16.149 101.933 C 16.094 92.601 16.714 89.79 21.535 77.541 C 24.532 69.926 27.735 61.342 28.652 58.464 C 31.246 50.323 30.766 33.328 27.692 24.469 C 26.244 20.3 25.253 16.888 25.489 16.888 C 25.725 16.888 29.25 19.019 33.322 21.624 C 75.435 48.564 116.224 48.592 158.245 21.712 C 162.392 19.059 166.04 16.888 166.352 16.888 C 166.663 16.888 166.01 19.062 164.899 21.719 C 158.673 36.622 159.956 53.012 169.125 75.705 C 176.357 93.602 177.444 101.081 174.424 112.183 C 169.271 131.13 152.13 144.786 133.499 144.786 C 128.385 144.786 127.348 145.553 112.993 159.949 C 104.677 168.289 96.963 175.112 95.852 175.112 C 94.74 175.112 87.103 168.365 78.88 160.118 Z M 103.808 146.689 C 110.577 139.809 110.855 139.275 108.378 137.914 C 106.927 137.117 103.516 134.159 100.796 131.34 L 95.852 126.215 L 90.907 131.34 C 88.188 134.159 84.776 137.117 83.326 137.914 C 80.849 139.275 81.127 139.809 87.895 146.689 C 91.859 150.719 95.44 154.016 95.852 154.016 C 96.264 154.016 99.844 150.719 103.808 146.689 Z M 66.185 128.804 C 84.51 123.718 93.24 103.785 84.284 87.475 C 74.894 70.374 50.766 67.631 37.966 82.209 C 26.894 94.82 29.671 115.324 43.741 124.843 C 51.134 129.845 58.041 131.064 66.185 128.804 Z M 52.763 117.671 C 43.73 113.077 42.181 100.553 49.849 94.101 C 55.357 89.467 59.645 88.63 64.941 91.155 C 74.608 95.765 77.151 107.398 70.045 114.504 C 65.133 119.416 58.562 120.62 52.763 117.671 Z M 144.81 126.896 C 149.903 124.263 156.608 117.17 158.671 112.234 C 162.507 103.051 160.081 88.797 153.475 81.715 C 144.724 72.334 129.044 70.092 117.908 76.629 C 96.298 89.315 100.633 121.551 124.921 128.787 C 130.262 130.378 139.837 129.468 144.81 126.896 Z M 126.837 118.476 C 114.772 113.485 114.726 96.895 126.763 91.155 C 132.059 88.63 136.346 89.467 141.854 94.101 C 153.993 104.316 141.526 124.552 126.837 118.476 Z"
        fill="#000000"
        stroke-width="12"/>
</svg>
